X:1
T:Marching on in the Light of God
T:Marching on in the Light of God
T:Robert Johnson
T:Robert Johnson,  1883
T:Public Domain Courtesy of the Cyber Hymnal™
C:Robert Johnson
Z:Public Domain
Z:Courtesy of the Cyber Hymnal™
%%score ( 1 2 ) ( 3 4 )
L:1/8
Q:1/4=110
M:4/4
K:C
V:1 treble 
V:2 treble 
V:3 bass 
V:4 bass 
V:1
 [CE]2 [EG]2 [EG]2 [CE]C | [CF]2 [FA]2 [FA]4 | [FG]2 [FB]2 [FB]2 [FA][FG] | [EG]2 [Ec]2 [EG]4 | %4
w: 1.~March- ing on in the|light of God,|March- ing on, I am|march- ing on;|
w: 2.~March- ing on through the|hosts of sin,|March- ing on I am|march- ing on;|
w: 3.~March- ing on while the|skep- tics sneer,|March- ing on, I am|march- ing on;|
w: 4.~March- ing on with the|flag un- furled,|March- ing on, I am|march- ing on;|
 [CE]2 [EG]2 [EG]2 [CE]C | [CF]2 [FA]2 [FA]4 | (GB) [Dd]2 (GB) (de) | [Ec]6 z ||"^Refrain" [CE] | %9
w: Up the path that the|Mas- ter trod,|March- * ing march- * ing *|on.||
w: Vic- t’ry’s mine while I’ve|Christ with- in,|March- * ing, march- * ing *|on.|A|
w: Per- fect love cast- eth|out all fear,|March- * ing, march- * ing *|on.||
w: Preach- ing Christ to the|dy- ing world,|March- * ing, march- * ing *|on.||
 [EG]3 [CE] [Ec]3 [EG] | [FA]2 F2 [Fd]3 [Fc] | [FB]3 [DF] [DB]3 [FA] | [EG]2 [Ec]2 [EG]2 (EF) | %13
w: ||||
w: robe of white, a|crown of gold, A|harp, a home, a|man- sion fair, A *|
w: ||||
w: ||||
 [CG]3 [CE] [Cc]3 [EG] | [FA]2 F2 [=Fd]3 [^Fc] | [GB]2 G2 [GA]2 [FB]2 | [Ec]6 |] %17
w: ||||
w: vic- tor’s palm, a|joy un- told, Are|mine when I get|there.|
w: ||||
w: ||||
V:2
 x7 C | x8 | x8 | x8 | x7 C | x8 | D2 x D2 F2 x | x7 || x | x8 | x2 F2 x4 | x8 | x6 C2 | x8 | %14
 x2 ^F2 x4 | x2 G2 x4 | x6 |] %17
V:3
 [C,G,]2 [C,C]2 [C,C]2 [C,G,][E,G,] | [F,A,]2 [F,C]2 [F,C]4 | [G,B,]2 [G,D]2 [G,D]2 [A,C][B,D] | %3
 C2 [C,G,]2 [C,C]4 | [C,G,]2 [C,C]2 [C,C]2 [C,G,][E,G,] | [F,A,]2 [F,C]2 [F,C]4 | %6
 (B,G,) [G,B,]2 (B,G,) [G,B,]2 | [C,C]6 z || [C,G,] | [C,G,]3 [C,G,] [C,G,]3 [C,C] | %10
 [F,C]2 [F,A,]2 [D,A,]3 [D,A,] | G,3 [G,B,] G,3 [G,B,] | [C,C]2 [C,G,]2 [C,C]2 (G,D,) | %13
 [C,E,]3 [C,G,] [E,G,]3 [C,C] | [F,C]2 [F,A,]2 [D,A,]3 [D,D] | [G,D]2 [G,B,]2 [G,C]2 [G,D]2 | %16
 [C,C]6 |] %17
V:4
 x8 | x8 | x8 | C2 x6 | x8 | x8 | G,2 x G,2 x3 | x7 || x | x8 | x8 | G,3 G,3 x2 | x6 C,2 | x8 | %14
 x8 | x8 | x6 |] %17

